svgs/cromite.svg

<svg xmlns="http://www.w3.org/2000/svg" width="212.65" height="204" fill="none" style="-webkit-print-color-adjust:exact" viewBox="-6 -6 212.65 204"><path d="M96 170c40.869 0 74-33.131 74-74 0-40.87-33.131-74-74-74-40.87 0-74 33.13-74 74 0 40.869 33.13 74 74 74Z"/><path stroke="#000" stroke-width="12" d="M96 170c40.869 0 74-33.131 74-74 0-40.87-33.131-74-74-74-40.87 0-74 33.13-74 74 0 40.869 33.13 74 74 74Z"/><path d="M76.193 115.805c10.933 10.934 28.658 10.936 39.588.006 10.931-10.931 10.928-28.655-.005-39.589-10.934-10.933-28.658-10.936-39.589-.005-10.93 10.931-10.928 28.655.006 39.588Zm39.588.006 32.531 32.531m-32.536-72.12 32.548-32.544"/><path stroke="#000" stroke-width="12" d="M76.193 115.805c10.933 10.934 28.658 10.936 39.588.006 10.931-10.931 10.928-28.655-.005-39.589-10.934-10.933-28.658-10.936-39.589-.005-10.93 10.931-10.928 28.655.006 39.588Zm39.588.006 32.531 32.531m-32.536-72.12 32.548-32.544"/></svg>

<svg width="192" height="192" viewBox="0 0 192 192" fill="none" xmlns="http://www.w3.org/2000/svg">
<rect width="192" height="192" fill="#1E1E1E"/>
<g clip-path="url(#clip0_0_1)">
<path d="M96 170C136.869 170 170 136.869 170 96C170 55.13 136.869 22 96 22C55.13 22 22 55.13 22 96C22 136.869 55.13 170 96 170Z" stroke="black" stroke-width="12"/>
<path d="M115.781 115.811C104.851 126.741 87.126 126.739 76.193 115.805C65.259 104.872 65.257 87.148 76.187 76.217C87.118 65.286 104.842 65.289 115.776 76.222M115.781 115.811C126.712 104.88 126.709 87.156 115.776 76.222M115.781 115.811L148.312 148.342M115.776 76.222L148.324 43.678" stroke="black" stroke-width="12"/>
</g>
<defs>
<clipPath id="clip0_0_1">
<rect width="160" height="160" fill="white" transform="translate(16 16)"/>
</clipPath>
</defs>
</svg>
